packages/core/src/svgs/bdt.svg

<svg width="24" height="24" viewBox="0 0 24 24" fill="none" xmlns="http://www.w3.org/2000/svg">
<g clip-path="url(#clip0_31_6918)">
<path d="M0 0H24V24H0V0Z" fill="url(#paint0_linear_31_6918)"/>
<path d="M11.6632 16.2908C11.6632 17.4715 10.6835 18.4285 9.47448 18.4285C8.26591 18.4285 7.28577 17.4715 7.28577 16.2908C7.28577 15.1101 8.26591 14.1526 9.47448 14.1526C10.6831 14.1526 11.6632 15.1101 11.6632 16.2908ZM16.7143 16.2908C16.7143 17.4715 15.7346 18.4285 14.5256 18.4285C13.3171 18.4285 12.3369 17.4715 12.3369 16.2908C12.3369 15.1101 13.3166 14.1526 14.5256 14.1526C15.7342 14.1526 16.7143 15.1101 16.7143 16.2908ZM10.6531 8.2255C11.2608 7.84536 11.6632 7.18022 11.6632 6.42336C11.6632 5.24264 10.6835 4.28564 9.47448 4.28564C8.26591 4.28564 7.28577 5.24264 7.28577 6.42336C7.28577 7.18022 7.68862 7.84536 8.29591 8.2255V8.23236C8.50034 8.38236 8.63277 8.62107 8.63277 8.89022C8.63277 9.15936 8.50034 9.39807 8.29591 9.54807C7.98796 9.73921 7.73368 10.0055 7.55697 10.322C7.38027 10.6384 7.28694 10.9946 7.28577 11.3571C7.28577 12.5378 8.26591 13.4948 9.47448 13.4948C10.6831 13.4948 11.6632 12.5378 11.6632 11.3571C11.6632 10.6002 11.2603 9.92822 10.6531 9.5485C10.549 9.47312 10.4642 9.37419 10.4056 9.25978C10.3471 9.14537 10.3164 9.01873 10.3162 8.89022C10.3162 8.62107 10.4491 8.38236 10.6531 8.23236V8.2255Z" fill="white"/>
<path d="M12.6811 12.5081C12.8825 12.8127 13.1565 13.0624 13.4786 13.2347C13.8006 13.4069 14.1604 13.4963 14.5256 13.4947C15.7342 13.4947 16.7143 12.5377 16.7143 11.357C16.7143 10.1763 15.7346 9.21926 14.5256 9.21926C14.1604 9.21768 13.8006 9.30703 13.4786 9.47927C13.1565 9.65151 12.8825 9.9012 12.6811 10.2058H12.6738C12.5942 10.3086 12.4921 10.3917 12.3752 10.4487C12.2584 10.5057 12.13 10.5351 12.0001 10.5345C11.8701 10.5351 11.7417 10.5057 11.6249 10.4487C11.508 10.3917 11.4059 10.3086 11.3263 10.2058C10.9376 9.61226 10.2493 9.21926 9.47491 9.21926C8.26548 9.21926 7.28577 10.1763 7.28577 11.357C7.28577 12.5377 8.26591 13.4947 9.47448 13.4947C10.2493 13.4947 10.9376 13.1017 11.3268 12.5081C11.4063 12.4054 11.5084 12.3223 11.6251 12.2653C11.7418 12.2083 11.8701 12.1789 12.0001 12.1794C12.2756 12.1794 12.5199 12.3084 12.6738 12.5081H12.6811ZM12.6811 17.4418C12.8825 17.7465 13.1565 17.9962 13.4786 18.1684C13.8006 18.3406 14.1604 18.43 14.5256 18.4284C15.7342 18.4284 16.7143 17.4714 16.7143 16.2907C16.7143 15.11 15.7346 14.1525 14.5256 14.1525C14.1604 14.151 13.8005 14.2404 13.4785 14.4127C13.1565 14.5851 12.8824 14.8348 12.6811 15.1395H12.6738C12.5942 15.2423 12.4921 15.3255 12.3752 15.3825C12.2584 15.4395 12.13 15.4688 12.0001 15.4683C11.8701 15.4688 11.7417 15.4395 11.6249 15.3825C11.508 15.3255 11.4059 15.2423 11.3263 15.1395C10.9376 14.546 10.2493 14.1525 9.47491 14.1525C8.26548 14.1525 7.28577 15.11 7.28577 16.2907C7.28577 17.4714 8.26591 18.4284 9.47448 18.4284C10.2493 18.4284 10.9376 18.035 11.3268 17.4418C11.4062 17.339 11.5083 17.2558 11.625 17.1988C11.7418 17.1417 11.8701 17.1122 12.0001 17.1127C12.2756 17.1127 12.5199 17.2421 12.6738 17.4418H12.6811Z" fill="white"/>
<path d="M15.7042 13.1587C16.3115 12.779 16.7143 12.1138 16.7143 11.357C16.7143 10.1762 15.7346 9.21924 14.5256 9.21924C13.3171 9.21924 12.3369 10.1762 12.3369 11.357C12.3369 12.1138 12.7398 12.779 13.3471 13.1587V13.166C13.5515 13.316 13.6839 13.5547 13.6839 13.8238C13.6839 14.0925 13.5511 14.3317 13.3471 14.4817C13.0392 14.6728 12.7849 14.939 12.6082 15.2554C12.4315 15.5718 12.3382 15.9279 12.3369 16.2902C12.3369 17.4714 13.3166 18.4284 14.5256 18.4284C15.7342 18.4284 16.7143 17.4714 16.7143 16.2907C16.7143 15.5338 16.3115 14.8614 15.7042 14.4817C15.6002 14.4063 15.5154 14.3075 15.4569 14.1931C15.3983 14.0788 15.3677 13.9523 15.3673 13.8238C15.3673 13.5547 15.4998 13.316 15.7042 13.166V13.1587ZM10.6531 13.1587C11.2608 12.779 11.6632 12.1138 11.6632 11.357C11.6632 10.1762 10.6835 9.21924 9.47448 9.21924C8.26591 9.21924 7.28577 10.1762 7.28577 11.357C7.28577 12.1138 7.68862 12.779 8.29591 13.1587V13.166C8.50034 13.316 8.63277 13.5547 8.63277 13.8238C8.63277 14.0925 8.50034 14.3317 8.29591 14.4817C7.98808 14.6727 7.73388 14.9389 7.55718 15.2552C7.38048 15.5715 7.28709 15.9275 7.28577 16.2898C7.28577 17.4718 8.26591 18.4284 9.47448 18.4284C10.6831 18.4284 11.6632 17.4714 11.6632 16.2907C11.6632 15.5338 11.2603 14.8614 10.6531 14.4817C10.549 14.4063 10.4643 14.3075 10.4057 14.1931C10.3472 14.0788 10.3165 13.9523 10.3162 13.8238C10.3162 13.5547 10.4491 13.316 10.6531 13.166V13.1587Z" fill="white"/>
</g>
<defs>
<linearGradient id="paint0_linear_31_6918" x1="3" y1="-3.64286" x2="19.0714" y2="20.1429" gradientUnits="userSpaceOnUse">
<stop stop-color="#28D5ED"/>
<stop offset="1" stop-color="#0C59AA"/>
</linearGradient>
<clipPath id="clip0_31_6918">
<rect width="24" height="24" fill="white"/>
</clipPath>
</defs>
</svg>

<svg xmlns="http://www.w3.org/2000/svg" width="24" height="24" fill="none" viewBox="0 0 24 24"><g clip-path="url(#a)"><path fill="url(#b)" d="M0 0h24v24H0z"/><path fill="#fff" d="M11.663 16.29c0 1.181-.98 2.139-2.189 2.139-1.208 0-2.188-.957-2.188-2.138 0-1.18.98-2.138 2.188-2.138 1.21 0 2.19.957 2.19 2.138m5.051 0c0 1.181-.98 2.139-2.188 2.139s-2.19-.957-2.19-2.138c0-1.18.98-2.138 2.19-2.138 1.208 0 2.188.957 2.188 2.138m-6.06-8.064a2.13 2.13 0 0 0 1.01-1.803c0-1.18-.98-2.137-2.19-2.137-1.208 0-2.188.957-2.188 2.137 0 .757.403 1.422 1.01 1.803v.006c.204.15.337.39.337.658 0 .27-.133.508-.337.658a2.14 2.14 0 0 0-1.01 1.81c0 1.18.98 2.137 2.188 2.137 1.21 0 2.19-.957 2.19-2.138 0-.757-.404-1.429-1.01-1.808a.82.82 0 0 1-.338-.659c0-.269.133-.508.337-.658z"/><path fill="#fff" d="M12.681 12.508a2.2 2.2 0 0 0 1.845.987c1.208 0 2.188-.957 2.188-2.138 0-1.18-.98-2.138-2.188-2.138a2.2 2.2 0 0 0-1.845.987h-.007a.85.85 0 0 1-.674.329.85.85 0 0 1-.674-.33 2.21 2.21 0 0 0-1.851-.986c-1.21 0-2.19.957-2.19 2.138 0 1.18.98 2.138 2.19 2.138.774 0 1.463-.393 1.852-.987A.85.85 0 0 1 12 12.18c.276 0 .52.13.674.33zm0 4.934a2.2 2.2 0 0 0 1.845.986c1.208 0 2.188-.957 2.188-2.137s-.98-2.139-2.188-2.139a2.2 2.2 0 0 0-1.845.988h-.007a.85.85 0 0 1-.674.328.85.85 0 0 1-.674-.328 2.21 2.21 0 0 0-1.851-.988c-1.21 0-2.19.958-2.19 2.139s.98 2.137 2.19 2.137c.774 0 1.463-.393 1.852-.986a.85.85 0 0 1 .673-.33c.276 0 .52.13.674.33z"/><path fill="#fff" d="M15.704 13.159a2.13 2.13 0 0 0 1.01-1.802c0-1.18-.98-2.138-2.188-2.138s-2.19.957-2.19 2.138c0 .757.404 1.422 1.011 1.802v.007c.205.15.337.389.337.658a.82.82 0 0 1-.337.658 2.14 2.14 0 0 0-1.01 1.808c0 1.181.98 2.138 2.189 2.138 1.208 0 2.188-.957 2.188-2.137 0-.757-.402-1.43-1.01-1.81a.82.82 0 0 1-.337-.657c0-.27.133-.508.337-.658zm-5.05 0a2.12 2.12 0 0 0 1.01-1.802c0-1.18-.98-2.138-2.19-2.138-1.208 0-2.188.957-2.188 2.138 0 .757.403 1.422 1.01 1.802v.007c.204.15.337.389.337.658a.82.82 0 0 1-.337.658 2.14 2.14 0 0 0-1.01 1.808c0 1.182.98 2.138 2.188 2.138 1.21 0 2.19-.957 2.19-2.137 0-.757-.404-1.43-1.01-1.81a.82.82 0 0 1-.338-.657c0-.27.133-.508.337-.658z"/></g><defs><linearGradient id="b" x1="3" x2="19.071" y1="-3.643" y2="20.143" gradientUnits="userSpaceOnUse"><stop stop-color="#28D5ED"/><stop offset="1" stop-color="#0C59AA"/></linearGradient><clipPath id="a"><path fill="#fff" d="M0 0h24v24H0z"/></clipPath></defs></svg>
